X:1
T:Pentonville, SM
T:Pentonville, SM
T:Francis Linley, circa 1800
T:Public Domain Courtesy of the Cyber Hymnal™
C:Francis Linley, circa 1800
Z:Public Domain
Z:Courtesy of the Cyber Hymnal™
%%score ( 1 2 ) ( 3 4 )
L:1/8
Q:1/4=110
M:4/4
K:F
V:1 treble 
V:2 treble 
V:3 bass 
V:4 bass 
V:1
 [Fc]2 | [FA]2 F2 [DG]2 [CE]2 | [CF]6 [CA]2 | [EG]2 [DF]2 [CE]2 [=B,D]2 | C6 [CG]2 | %5
 [CE]2 C2 [CF]2 [FA]2 | [FB]2 c2 [Dd]2 [=Ec]2 | [FA]2 [FB]2 [FA]2 [EG]2 | F6 |] %9
V:2
 x2 | x2 F2 x4 | x8 | x8 | C6 x2 | x2 C2 x4 | x2 (F_E) x4 | x8 | F6 |] %9
V:3
 [F,A,]2 | [F,C]2 [F,A,]2 [B,,B,]2 [C,B,]2 | [F,A,]6 F,2 | [E,G,]2 [F,A,]2 G,2 (G,F,) | %4
 [C,E,]6 [C,E,]2 | [C,G,]2 [B,,E,]2 [A,,F,]2 F,2 | [D,F,]2 [C,A,]2 [B,,B,]2 (G,C) | %7
 [F,C]2 [B,,D]2 [C,C]2 [C,B,]2 | [F,A,]6 |] %9
V:4
 x2 | x8 | x6 F,2 | x4 G,2 G,,2 | x8 | x6 (F,_E,) | x6 C,2 | x8 | x6 |] %9

